images/advantages/thermometer.svg

<svg width="48" height="48" fill="none" xmlns="http://www.w3.org/2000/svg"><circle cx="24" cy="24" r="23" stroke="#2D3440" stroke-width="2"/><path d="M27.1889 13.0695c0-1.3445-.4917-2.634-1.3668-3.58469C24.9469 8.5341 23.7599 8 22.5222 8c-1.2376 0-2.4246.5341-3.2998 1.48481-.8751.95069-1.3668 2.24019-1.3668 3.58469v14.7548c-1.1964 1.3264-1.8631 3.1117-1.8555 4.9687-.0032 1.1893.2653 2.3608.7816 3.4096.5162 1.0488 1.264 1.9419 2.1763 2.5994.9122.6575 1.9605 1.0587 3.0506 1.1677 1.0902.1091 2.1883-.0776 3.1957-.5431s1.8927-1.1954 2.5766-2.1241c.6838-.9288 1.1447-2.0274 1.3414-3.1973.1967-1.17.123-2.3746-.2144-3.506-.3375-1.1314-.9281-2.1541-1.719-2.9764V13.0695Zm.167 19.7235c.0094.8795-.1883 1.7469-.5744 2.5201-.386.7731-.9475 1.4262-1.6312 1.8973-.6838.471-1.467.7445-2.2753.7943-.8083.0497-1.615-.1257-2.3433-.5098-.7284-.3841-1.3543-.9641-1.8183-1.6848-.464-.7208-.7507-1.5584-.8329-2.4334-.0822-.875.0428-1.7582.3632-2.566.3204-.8077.8255-1.5131 1.4674-2.0491V13.0695c0-.8099.2962-1.5867.8234-2.1594.5272-.5727 1.2422-.8944 1.9877-.8944.7456 0 1.4606.3217 1.9878.8944.5272.5727.8234 1.3495.8234 2.1594v15.5006c.6261.474 1.1372 1.1057 1.4894 1.8412.3523.7354.5352 1.5527.5331 2.3817Z" fill="#2D3440"/><path d="M23.5335 29.6384V13.14c0-.2673-.0977-.5236-.2717-.7126-.174-.189-.41-.2952-.6561-.2952-.246 0-.482.1062-.656.2952-.174.189-.2717.4453-.2717.7126v16.4984c-.619.2378-1.1408.7056-1.473 1.3208-.3322.6152-.4535 1.3382-.3425 2.0411.1111.703.4473 1.3407.9493 1.8004.5019.4598 1.1374.7119 1.7939.7119.6566 0 1.292-.2521 1.794-.7119.502-.4597.8382-1.0974.9492-1.8004.1111-.7029-.0102-1.4259-.3424-2.0411-.3323-.6152-.854-1.083-1.473-1.3208ZM34.6667 11.9407h-5.5666v2.0157h5.5666v-2.0157ZM34.6667 15.9721h-5.5666v2.0157h5.5666v-2.0157ZM34.6667 20.0034h-5.5666v2.0157h5.5666v-2.0157ZM34.6667 24.0348h-5.5666v2.0157h5.5666v-2.0157Z" fill="#2D3440"/></svg>

<svg width="48" height="48" viewBox="0 0 48 48" fill="none" xmlns="http://www.w3.org/2000/svg">
<circle cx="24" cy="24" r="23" stroke="#2D3440" stroke-width="2"/>
<path d="M27.1889 13.0695C27.1889 11.725 26.6972 10.4355 25.8221 9.48481C24.9469 8.5341 23.7599 8 22.5222 8C21.2846 8 20.0976 8.5341 19.2224 9.48481C18.3473 10.4355 17.8556 11.725 17.8556 13.0695V27.8243C16.6592 29.1507 15.9925 30.936 16.0001 32.793C15.9969 33.9823 16.2654 35.1538 16.7817 36.2026C17.2979 37.2514 18.0457 38.1445 18.958 38.802C19.8702 39.4595 20.9185 39.8607 22.0086 39.9697C23.0988 40.0788 24.1969 39.8921 25.2043 39.4266C26.2117 38.9611 27.097 38.2312 27.7809 37.3025C28.4647 36.3737 28.9256 35.2751 29.1223 34.1052C29.319 32.9352 29.2453 31.7306 28.9079 30.5992C28.5704 29.4678 27.9798 28.4451 27.1889 27.6228V13.0695ZM27.3559 32.793C27.3653 33.6725 27.1676 34.5399 26.7815 35.3131C26.3955 36.0862 25.834 36.7393 25.1503 37.2104C24.4665 37.6814 23.6833 37.9549 22.875 38.0047C22.0667 38.0544 21.26 37.879 20.5317 37.4949C19.8033 37.1108 19.1774 36.5308 18.7134 35.8101C18.2494 35.0893 17.9627 34.2517 17.8805 33.3767C17.7983 32.5017 17.9233 31.6185 18.2437 30.8107C18.5641 30.003 19.0692 29.2976 19.7111 28.7616V13.0695C19.7111 12.2596 20.0073 11.4828 20.5345 10.9101C21.0617 10.3374 21.7767 10.0157 22.5222 10.0157C23.2678 10.0157 23.9828 10.3374 24.51 10.9101C25.0372 11.4828 25.3334 12.2596 25.3334 13.0695V28.5701C25.9595 29.0441 26.4706 29.6758 26.8228 30.4113C27.1751 31.1467 27.358 31.964 27.3559 32.793Z" fill="#2D3440"/>
<path d="M23.5335 29.6384V13.14C23.5335 12.8727 23.4358 12.6164 23.2618 12.4274C23.0878 12.2384 22.8518 12.1322 22.6057 12.1322C22.3597 12.1322 22.1237 12.2384 21.9497 12.4274C21.7757 12.6164 21.678 12.8727 21.678 13.14V29.6384C21.059 29.8762 20.5372 30.344 20.205 30.9592C19.8728 31.5744 19.7515 32.2974 19.8625 33.0003C19.9736 33.7033 20.3098 34.341 20.8118 34.8007C21.3137 35.2605 21.9492 35.5126 22.6057 35.5126C23.2623 35.5126 23.8977 35.2605 24.3997 34.8007C24.9017 34.341 25.2379 33.7033 25.3489 33.0003C25.46 32.2974 25.3387 31.5744 25.0065 30.9592C24.6742 30.344 24.1525 29.8762 23.5335 29.6384Z" fill="#2D3440"/>
<path d="M34.6667 11.9407H29.1001V13.9564H34.6667V11.9407Z" fill="#2D3440"/>
<path d="M34.6667 15.9721H29.1001V17.9878H34.6667V15.9721Z" fill="#2D3440"/>
<path d="M34.6667 20.0034H29.1001V22.0191H34.6667V20.0034Z" fill="#2D3440"/>
<path d="M34.6667 24.0348H29.1001V26.0505H34.6667V24.0348Z" fill="#2D3440"/>
</svg>
